X: 3201
T: MAGGIE LAUDER
Q: "Highland Schottische."
R: Schottische.
%R: shottish
B: James Kerr "Merry Melodies" v.3 p.23 #201
Z: 2016 John Chambers <jc:trillian.mit.edu>
M: C
L: 1/16
K: D
uA2 |\
vd3ue df3 d3e df3 | e3fe3d c4 e3g |\
fd3 d3A d3ed3f | a3ba3g f4 a3f |\
g3ag3b f3gf3a |
e3f gfed (c4 e3)A |\
d3AB3F G3FE3g | fa3 e3f d4 d2 |]\
f2 |\
a3fd3a fa3 d3f | e3f gfed (c4 e3)g |
fa3 d3g fgaf d3f | a3ba3g f4 a3f |\
gb3 gb3 fa3 fa3 | e3f gfed (c4 e3)A |\
d3AB3F G3FE3g | fa3 e3f d4 d2 |]

%%sep 1 1 500
%%sep 1 1 500

